X: 585
T: Ku xinbing
%%abc-version 2.0
%%abcx-abcm2ps-target-version 5.9.1 (29 Sep 2008)
%%abc-creator hum2abc beta
%%abcx-conversion-date 2013/10/02 07:52:30
%%abc-edited-by Helmut Schaffrath
%%humdrum-veritas 1646647261
%%humdrum-veritas-data 1655599059
%%continueall 1
%%barnumbers 0
L: 1/16
M: 2/4
K: F
d2 d c d2 d c [I:setbarnb 1]| 
A2 d2c4 | 
d f d c A c A G | 
A4D4 | 
G4F4 | 
c2 c c A2 c2 | 
F2 A AG4 | 
f2> g2 e2 e d | 
c2> d2c4 |]  



